X:484
T: "Liebesentzuecken"
N: Z1164
O: Europa, Mitteleuropa, Deutschland, Hessen
R: Liebes - Lied
M: 4/4
L: 1/8
K: Bb
F2 | B2B2B2cB | A3GF2
F2 | G2G2B2AG | F3ED2
F2 | B2B2c2c2 | d2z4
Bc | d2d2d2f2 | feedc2
B2 | ccccc2de | fedcB3
d | dcecB2A2 | B2z4

